icons/Others/ping-pong-line.svg

<svg viewBox="0 0 24 24" xmlns="http://www.w3.org/2000/svg"><path d="M11.5 2C16.7467 2 21 6.25329 21 11.5C21 13.0291 20.6387 14.4739 19.9969 15.7536L22.4602 18.2175C22.8507 18.608 22.8507 19.2412 22.4602 19.6317L19.6317 22.4602C19.2412 22.8507 18.608 22.8507 18.2175 22.4602L15.7536 19.9969C14.4739 20.6387 13.0291 21 11.5 21C6.25329 21 2 16.7467 2 11.5C2 6.25329 6.25329 2 11.5 2ZM16.8033 15.3877L15.3891 16.8019L18.9246 20.3375L20.3388 18.9233L16.8033 15.3877ZM18.6669 9.28305L9.28305 18.6669C9.98371 18.8834 10.7282 19 11.5 19C12.4671 19 13.3914 18.817 14.2403 18.4836L13.2678 17.5104C12.8772 17.1199 12.8772 16.4867 13.2678 16.0962L16.0962 13.2678C16.4867 12.8772 17.1199 12.8772 17.5104 13.2678L18.4836 14.2403C18.817 13.3914 19 12.4671 19 11.5C19 10.7282 18.8834 9.98371 18.6669 9.28305ZM11.5 4C7.35786 4 4 7.35786 4 11.5C4 14.1135 5.3368 16.4148 7.36394 17.7574L17.7574 7.36394C16.4148 5.3368 14.1135 4 11.5 4Z"/></svg>

<svg xmlns="http://www.w3.org/2000/svg" viewBox="0 0 24 24">
    <g>
        <path fill="none" d="M0 0h24v24H0z"/>
        <path fill-rule="nonzero" d="M11.5 2a9.5 9.5 0 0 1 9.5 9.5 9.46 9.46 0 0 1-1.003 4.254l2.463 2.464a1 1 0 0 1 0 1.414l-2.828 2.828a1 1 0 0 1-1.414 0l-2.464-2.463A9.46 9.46 0 0 1 11.5 21a9.5 9.5 0 0 1 0-19zm5.303 13.388l-1.414 1.414 3.536 3.535 1.414-1.414-3.536-3.535zm1.864-6.105l-9.384 9.384c.7.216 1.445.333 2.217.333a7.48 7.48 0 0 0 2.74-.516l-.972-.974a1 1 0 0 1 0-1.414l2.828-2.828a1 1 0 0 1 1.414 0l.974.972A7.48 7.48 0 0 0 19 11.5c0-.772-.117-1.516-.333-2.217zM11.5 4a7.5 7.5 0 0 0-4.136 13.757L17.757 7.364A7.493 7.493 0 0 0 11.5 4z"/>
    </g>
</svg>
